X:643
T: Paddy Fahey's
Z: Piano Box Version by Martin Fleischmann
H: Created 2015-03-27 /  Last Modified 2015-04-04
R: reel
M: 4/4
L: 1/8
K: Gmaj
|:G2 BD GBdB|c2 ag fgdc|B~G3 BcdB|cBAG FzCA|
GD DD GBdB|c2 ag fgdc|B~G3 BcdB|1 cAFA G2 DB,:|2 cAFA G2 Bc||
|:dgfa gdBG|FGAB c2 Bc|Aaag a3g|fdad bdad|
(3ggg fa gdBG|FGAB c2 Bc|d~g3 defd|1 cAFA G2 Bc:|2 cAFA G2 DB,||

